X:401
T:no name
R:reel
S:Session at Shoot the Crows, Sligo, 1992
Z:id:hn-reel-401
M:C|
K:A
A2EA CAEA|A2cA GABG|~A3B cABc|1 d2ed cABG:|2 d2ed cAAc||
~e3d ecAc|~e3c dcBc|1 eA~A2 fA~A2|eAed cAAc:|2 d2dc dcBA|Feed cdBc||
